seal.svg

<svg fill="currentColor" viewBox="0 0 24 24"><path d="M20.39 19.37 16.38 18 15 22l-3.08-6L9 22l-1.38-4-4.01 1.37 2.92-6A6.97 6.97 0 0 1 5 9a7 7 0 0 1 7-7 7 7 0 0 1 7 7c0 1.65-.57 3.17-1.53 4.37zM7 9l2.69 1.34-.19 3 2.5-1.66 2.5 1.65-.17-2.99L17 9l-2.68-1.35.18-2.98L12 6.31 9.5 4.65l.17 3.01z"/></svg>

<svg  viewBox="0 0 24 24" fill="currentColor"><path  d="M20.39,19.37L16.38,18L15,22L11.92,16L9,22L7.62,18L3.61,19.37L6.53,13.37C5.57,12.17 5,10.65 5,9A7,7 0 0,1 12,2A7,7 0 0,1 19,9C19,10.65 18.43,12.17 17.47,13.37L20.39,19.37M7,9L9.69,10.34L9.5,13.34L12,11.68L14.5,13.33L14.33,10.34L17,9L14.32,7.65L14.5,4.67L12,6.31L9.5,4.65L9.67,7.66L7,9Z"/></svg>
